X:1
T:The Good Old Way
T:William Howard Doane
T:The Good Old Way
T:Public Domain
T:Public Domain
C:William Howard Doane
Z:Public Domain
%%score ( 1 2 ) 3
L:1/8
M:4/4
K:Bb
V:1 treble 
V:2 treble 
V:3 bass 
V:1
 [Fd]>[Ec] | [DB]2 [DF]2 [DF]2 [FB]>[FA] | [EG]2 [Gc]2 [Gc]2 [=Ec]>[GB] | %3
w: 1.~We are|go- ing forth with our|staff in hand, Thro’ a|
w: 2.~There are|foes with- out, there are|foes with- in; They would|
w: 3.~In the|bliss- ful hour of com-|mun- ion sweet, Let us|
w: 4.~On the|brink of time when we|stand at last, When our|
 [FA]2 [FB]2 [Fc]2 [Fd]>[Ec] | [DB]2 [EG]2 [DF]2 [Fd]>[Ec] | [DB]2 [DF]2 [DF]2 [FB]>[FA] | %6
w: des- ert wild in a|strang- er land; But our|faith is bright and our|
w: turn us back to the|path of sin; We will|stop our ears to the|
w: come with joy to the|Mer- cy- seat; O we|love to sing, and we|
w: sun has set, and our|work is past; When we|bid fare- well to our|
 [EG]2 [Gc]2 [Gc]2 [=Ec]>[GB] | [FA]2 [FB]2 [Fc]2 [Fd]>[Ec] | [DB]2 [DB]2 [DB]2 || %9
w: hope is strong, And the|Good Old Way is our|pil- grim song.|
w: words they say, While we|on- ward press in the|Good Old Way.|
w: love to pray, And we|bless the Lord for the|Good Old Way.|
w: mor- tal clay, We will|praise the Lord for the|Good Old Way.|
"^Refrain" [B,D]>[CE] | [DF]2 ([Fd][Ec]) [DB]2 [FB]>[FA] | [EG]2 (ed) [Gc]2 [Gc]>[GB] | %12
w: |||
w: ’Tis the|Good Old * Way, by our|fa- thers * trod; ’Tis the|
w: |||
w: |||
 [FA]2 [FB]2 [Fc]2 [Fd]>[Ec] | [DB]>[CA] [DB]>[EG] [DF]2 [Fd]>[Ec] | %14
w: ||
w: of life, and it lead-|eth un- to God; ’Tis the on-|
w: ||
w: ||
 [DB]2 [DF]2 [DF]2 [FB]>[FA] [EG]2 [Gc]2 [Gc]2 [=Ec]>[GB] | [FA]2 [FB]2 [Fc]2 [Fd]>[Ec] | %16
w: ||
w: ly path to the realms of day; We are go-|ing home in the Good|
w: ||
w: ||
 [DB]2 [EB]2 [DB]2 |] %17
w: |
w: Old Way. *|
w: |
w: |
V:2
 x2 | x8 | x8 | x8 | x8 | x8 | x8 | x8 | x6 || x2 | x8 | x2 G2 x4 | x8 | x8 | x16 | x8 | x6 |] %17
w: |||||||||||||||||
w: |||||||||||way||||||
V:3
 [B,,B,]>[B,,B,] | [B,,B,]2 [B,,B,]2 [B,,B,]2 [D,B,]>[D,B,] | [E,B,]2 [C,E]2 [C,E]2 [C,C]>[C,C] | %3
 [F,C]2 [F,D]2 [F,A,]2 [F,A,]>[F,A,] | [B,,B,]2 [B,,B,]2 [B,,B,]2 [B,,B,]>[B,,B,] | %5
 [B,,B,]2 [B,,B,]2 [B,,B,]2 [D,B,]>[D,B,] | [E,B,]2 [C,E]2 [C,E]2 [C,C]>[C,C] | %7
 [F,C]2 [F,D]2 [F,A,]2 [F,B,]>[F,A,] | [B,,B,]2 [E,G,]2 [B,,F,]2 || [B,,F,]>[B,,F,] | %10
 [B,,B,]2 [B,,F,]2 [B,,F,]2 [D,B,]>[D,B,] | [E,B,]2 ([C,C][D,=B,]) [E,C]2 [E,C]>[=E,C] | %12
 [F,C]2 [F,D]2 [F,A,]2 [F,B,]>[F,A,] | [B,,B,]>[B,,B,] [B,,B,]>[B,,B,] [B,,B,]2 [B,,B,]>[B,,B,] | %14
 [B,,B,]2 [B,,B,]2 [B,,B,]2 [D,B,]>[D,B,] [E,B,]2 [C,E]2 [C,E]2 [C,C]>[C,C] | %15
 [F,C]2 [F,D]2 [F,A,]2 [F,A,]>[F,A,] | [B,,B,]2 [E,G,]2 [B,,F,]2 |] %17

